Catalina-light/actions/16/tools-rip-video-cd.svg

<svg xmlns="http://www.w3.org/2000/svg" width="16" height="16" viewBox="0 0 16 16">
 <defs>
  <style id="current-color-scheme" type="text/css">
   .ColorScheme-Text { color:#5c616c; } .ColorScheme-Highlight { color:#5294e2; }
  </style>
 </defs>
 <path style="fill:currentColor" class="ColorScheme-Text" d="M 2 3 C 1.0043576 3.0029008 1.0039062 4 1.0039062 4 L 1.0039062 12 C 1.0039062 13 2.0039062 13 2.0039062 13 L 11 13 C 11 13 12 13 12 12 L 12 8.0039062 L 15.996094 12 L 15.996094 4.5 L 12 7.9960938 L 12 4 C 12 4 12 3 11 3 L 2.0039062 3 L 2 3 z"/>
</svg>

<svg width="16" height="16" viewBox="0 0 16 16" xmlns="http://www.w3.org/2000/svg">
<defs>
<style id="current-color-scheme" type="text/css">.ColorScheme-Text { color:#5c616c; } .ColorScheme-Highlight { color:#5294e2; }</style>
</defs>
<path class="ColorScheme-Text" d="m2 3c-0.99564 0.0029008-0.99609 1-0.99609 1v8c0 1 1 1 1 1h8.9961s1 0 1-1v-3.9961l3.9961 3.9961v-7.5l-3.9961 3.4961v-3.9961s0-1-1-1h-9z" fill="currentColor"/>
</svg>
